!!!!SEGMENT: pl-sa--548-a-ix-28--005_anonim--polonez.krn
!!!cenid: 18xx:428
!!!COM: Anonim
!!!COM-rismid: pe30004985
!!!CDT:
!!!CNT:
!!!OTL: Polonez
!!!PDT:
!!!AGN: Secular; Polonaise
!!!SMS-siglum: PL-SA
!!!SMS-shelfmark: 548/A IX 28
!!!SMS-shelfwork: 005 W
!!!SMS-variant:
!!!SMS-altvar:
!!!NIFC-rismid: 1001068955
!!!URL-scan: http://bc.bdsandomierz.pl/dlibra/publication/1440/edition/1408/content
!!!ONB-nifc: Str. 9 (s. 2) – s. 10 (s. 3)
**kern	**kern
*part1	*part1
*staff2	*staff1
*Ipiano	*Iempty
*I"Piano	*
*I'P-no	*
*clefF4	*clefG2
*k[]	*k[]
*C:	*C:
*M3/4	*M3/4
=1	=1
!	!LO:SIC:s=:v: all\right&colon;global
8CC/L	8c/L 8e
8C/	8d/J 8f
8C/	4.e/ 4.g
8C/	.
8C/	.
8C/J	8d#X/ 8f#X
=2	=2
*rep	*
8CC/L	8.e/L 8.g
8C/	.
.	16d#X/Jk 16f#X
8C/	16e/LL 16g
.	16fn/ 16a
8C/	16e/ 16g
.	16d#X/JJ 16f#X
8C/	8.e/L 8.g
8C/J	.
.	16c/Jk 16e
*Xrep	*
=3	=3
*rep	*
8CC/L	8.aa\L 8.ccc
8C/	.
.	16gg\Jk 16bb
8C/	8ff\L 8aa
8C/	8ee\ 8gg
8C/	8dd\ 8ff
8C/J	8cc\J 8ee
*Xrep	*
=4	=4
!LO:TX:a:t=P:mixed beam:problem	!
8GG/L	8.ee\L 8.gg
!	!LO:SIC:s:o=:v:8\left
8G\J	.
.	16dd#X\Jk 16ff#X
!	!LO:N:vis=4
4GG/	8ddn\ 8ffn
.	24G/LL
.	24G/
.	24G/JJ
4r	8G/L
.	8G/J
=5	=5
!	!LO:TX:a:t=P:mixed beam:problem
8GG/L	8B/L 8d
!	!LO:SIC:s:o=:v:8\left(w t. 5-7)
8G\	8c/J 8e
8G\	4.d/ 4.f
8G\	.
8G\	.
8G\J	8B/ 8d
!!LO:LB:g=original
=6	=6
!	!LO:TX:a:t=P:mixed beam:problem
*rep	*
8GG/L	8d/L 8f
8G\	8B/J 8d
8G\	16d/LL 16f
.	16e/ 16g
8G\	16d/ 16f
.	16c/JJ 16e
8G\	8d/L 8f
8G\J	8B/J 8d
*Xrep	*
=7	=7
!	!LO:TX:a:t=P:mixed beam:problem
*rep	*
8GG/L	8.bb\L 8.ddd
8G\	.
.	16aa\Jk 16ccc
8G\	8gg\L 8bb
8G\	8ff\ 8aa
8G\	8ee\ 8gg
8G\J	8dd\J 8ff
*Xrep	*
=8	=8
4C/	8.dd\L 8.ff
.	16cc\Jk 16ee
8r	4e\ 4cc 4ee
8CC/L 8C	.
8EE/ 8E	4r
8GG/J 8G	.
=9	=9
16C/LL	8e/L 8g 8cc
16G/	.
16E/	16e/L 16g 16cc
16G/JJ	16e/JJ 16g 16cc
*rep	*
16C/LL	8e/L 8g 8cc
16G/	.
16E/	8e/J 8g 8cc
16G/JJ	.
*Xrep	*
16GG/LL	8b/L 8dd/
16G/	.
16D/	8b/J 8gg/
16G/JJ	.
!!LO:LB:g=original
=10	=10
*rep	*
!	!LO:SIC:s:o=:v:*rep cały takt
16C/LL	8cc/L 8ee
16G/	.
16E/	16e/L 16g 16cc
16G/JJ	16e/JJ 16g 16cc
16C/LL	8e/L 8g 8cc
16G/	.
16E/	8e/J 8g 8cc
16G/JJ	.
*Xrep	*
*rep	*
16GG/LL	8g/L 8b
16G/	.
16D/	8g/J
16G/JJ	.
*Xrep	*
=11	=11
*rep	*
!	!LO:SIC:s:o=:v:*rep cały takt
16C/LL	8cc\
16G/	.
.	8qdd/
16E/	16cc\LL
16G/JJ	16b\JJ
16C/LL	16cc\LL
16G/	16dd\
16E/	16ee\
16G/JJ	16cc\JJ
*Xrep	*
*rep	*
16GG/LL	16dd\LL
16G/	16ee\
16D/	16ff\
16G/JJ	16gg\JJ
*Xrep	*
=12	=12
*rep	*
!	!LO:SIC:s:o=:v:*rep cały takt
16C/LL	8cc\L 8ee
16G/	.
16E/	16cc\L
16G/JJ	16cc\JJ
16C/LL	8cc\L
16G/	.
16E/	8cc\J
16G/JJ	.
*Xrep	*
*rep	*
16GG/LL	8b/L
16G/	.
16D/	8g/J
16G/JJ	.
*Xrep	*
=13	=13
8CC/L 8C	8e/ 8g 8cc
8C/ 8E 8G	4ee\ 4gg 4ccc
8C/ 8E 8G	.
8C/J 8E 8G	16gg\LL
.	16ee\JJ
8D/L 8F 8A	16gg#X\LL
.	16aa\
8D/J 8F 8A	16ff\
.	16dd\JJ
!!LO:LB:g=original
=14	=14
8C/L 8E	16cc/LL
.	16b/
8GG/J	16a/
.	16g/JJ
8D/L 8F	16f#X/LL
.	16g/
8GG/J	16b/
.	16dd/JJ
4C\ 4E	4cc\
=||;15	=||;15
!LO:TX:a:t=P:mixed beam:problem	!
8GG/L	16b\LL 16dd
.	16cc\ 16ee
!	!LO:SIC:s:o=:v:8\left (w t. 15-16)
8G\	16b\ 16dd
.	16a#X\JJ 16cc#X
8G\	4.b\ 4.dd
8G\	.
8G\	.
8G\J	8g\ 8b
=16	=16
!LO:TX:a:t=P:mixed beam:problem	!
*rep	*
8GG/L	8b\L 8dd
8G\	8g\J 8b
8G\	8.ee\L 8.gg
8G\	.
.	16dd\Jk 16ff#X
8G\	16cc\LL 16ee
.	16b\ 16dd
8G\J	16a\ 16cc
.	16g\JJ 16b
*Xrep	*
=17	=17
8DD/L	16a\LL 16cc
.	16b\ 16dd
8D/	16a\ 16cc
.	16g\JJ 16b
8D/	4.a\ 4.cc
8D/	.
8D/	.
8D/J	8f#X/ 8a
=18	=18
*rep	*
8DD/L	8a/L 8cc
8D/	8f#X/J 8a
!	!LO:SIC:s=:v:ff#
8D/	8.ff\L 8.aa
8D/	.
!	!LO:N:vis=8
.	16ee\Jk 16gg
8D/	16dd\LL 16ff
.	16cc\ 16ee
8D/J	16b\ 16dd
.	16a\JJ 16cc
*Xrep	*
!!LO:PB:g=original
=19	=19
!LO:TX:a:t=P:mixed beam:problem	!
8GG/L	16g\LL 16b
.	16a\JJ 16cc
8G\J 8B 8d	4b\ 4dd
8G\L 8B 8d	.
8G\J 8B 8d	16ee\LL
.	16ff#X\JJ
8G\L 8B 8d	16gg\LL
.	16aa\
8G\J 8B 8d	16bb\
.	16gg\JJ
=20	=20
8CC/L 8C	16ff\LL
.	16ee\
8C/J 8E 8A	16dd#X\
.	16ee\JJ
8C/L 8E 8A	8ee\L
8C/J 8E 8A	16ff\L
.	16gg#X\JJ
*rep	*
8C/L 8E 8A	16aa\LL
.	16bb\
8C/J 8E 8A	16ccc\
.	16aa\JJ
*Xrep	*
=21	=21
8G\L 8B	16ggn\LL
.	16ff#X\
8D\J	16ee\
.	16dd\JJ
8G\L 8B	8dd\L
8D\J	8bt\ 8dd
8A\L 8c	8cc\ 8ee
8D\J	8a\J 8ff#
=22	=22
!LO:TX:a:t=P:mixed beam:problem	!
8G\L 8B\	8b\L 8gg
8D/J	8dd\ 8bb
8G\L	8b\ 8gg
8D\J	8dd\J 8bb
!	!LO:TX:a:t=Polonez DaCapo
4GG/	4b\ 4gg
!!LO:LB:g=original
=23||	=23||
!!pagebreak:original
*M3/4	*M3/4
4CC/ 4C	8ee\L
.	16gg\L
.	16ff#X\JJ
4CC/ 4E	16aa\LL
.	16gg\
.	16ffn\
.	16ee\JJ
4GG/ 4G	8.gg\L
.	16ff\Jk
=24	=24
8B\L 8f	8dd\L
8G\J	16ff\L
.	16ee\JJ
*rep	*
8B\L 8f	16gg\LL
.	16ff\
8G\J	16ee\
.	16ff\JJ
*Xrep	*
8c\L 8e	16ee\LL
.	16gg\J
!	!LO:SIC:s:o=:v:8\left
8G\J	8ccc\J
=25	=25
4C/	8eet\L
.	16gg\L
.	16ff#X\JJ
4E/	16aa\LL
.	16gg\
.	16ffn\
.	16ee\JJ
4GG/ 4G	8.gg\L
.	16ff\Jk
=26	=26
8B\L 8d 8f	16dd\LL
.	16ff\
!	!LO:SIC:s:o=:v:8\left
8G\J	16ee\
.	16ff\JJ
*rep	*
8B\L 8d 8f	16gg\LL
.	16ff\
8G\J	16dd\
.	16b\JJ
*Xrep	*
4G\ 4c 4e	4cc\
=27	=27
4GGG/ 4GG	8g/
.	4g\ 4b 4ff
4BBB/ 4BB	.
.	16ee\LL
.	16dd\JJ
4DD/ 4D	16cc/LL
.	16b/
.	16a/
.	16g/JJ
=28	=28
.	q8dd
8C/L 8E	16cc\LL
.	16b\
8GG/J	16cc\
.	16dd\JJ
*rep	*
8C/L 8E	16ee\LL
.	16b\
8GG/J	16dd\
.	16a\JJ
*Xrep	*
*rep	*
8C/L 8E	16g\LL
.	16cc\
8GG/J	16ee\
.	16gg\JJ
*Xrep	*
=29	=29
!LO:TX:a:t=P:mixed beam:problem	!
8GG/L	16gg\LL
.	16ff#X\J
!	!LO:SIC:s:o=:v:8\left
8G\J	8.dd\J 8.ffn
4GG/	.
.	16cc\LL 16ee
.	16b\ 16dd
.	16a\JJ 16cc
4r	16g/LL 16b
.	16f/ 16a
.	16e/ 16g
.	16d/JJ 16f
=30	=30
4CC/ 4C	16c/LL 16e
.	16e/ 16g
.	16d#X/ 16f#X
.	16e/JJ 16g
4r	16fn/LL 16a
.	16e/ 16g
.	16dn/ 16f
.	16c/JJ 16e
!	!LO:SIC:s:o=:v:4\left
!	!LO:TX:a:t=Trio \nDaCapo
4G\	4B/ 4d
==	==
*-	*-
!!!system-decoration: s1,s2
!!!EED: Leszek Kubiak
!!!EST: 2020-11-23
!!!ENC: Marcin Jachim
!!!END: 2020-06-15
